X:108
M:2/4
L:1/8
K:D
| E2 EF/A/ | BA FE | D2 DE/F/ | AF ED | 
E2 EF/A/ | BA FA | B/c/d/B/ AF | E2 E2 :| 
| Be ed/e/ | fe dA | Bc de | dc BA | 

